packages/tokens/icons/serviceSupport/size24Px.svg

<svg viewBox="0 0 24 24" fill="none" xmlns="http://www.w3.org/2000/svg" width="1em" height="1em"><path d="M10.9565 14.5L10.9565 18.5C10.9565 19.6046 11.852 20.5 12.9565 20.5H19.946C20.2039 20.5 20.4518 20.5996 20.6379 20.778L21.1754 21.2931C21.314 21.4259 21.4985 21.5 21.6904 21.5C22.1015 21.5 22.4348 21.1667 22.4348 20.7556V14.5C22.4348 13.3954 21.5394 12.5 20.4348 12.5L12.9565 12.5C11.852 12.5 10.9565 13.3954 10.9565 14.5Z" stroke="currentColor"/><path d="M17.2174 9V4.5C17.2174 3.39543 16.322 2.5 15.2174 2.5L4.5 2.5C3.39543 2.5 2.5 3.39543 2.5 4.5L2.5 12.2153C2.5 12.9248 3.07517 13.5 3.78468 13.5V13.5C4.22941 13.5 4.64251 13.27 4.87674 12.8919L5.44589 11.9733C5.62821 11.679 5.94977 11.5 6.29595 11.5H7.5" stroke="currentColor" stroke-linecap="round"/><path d="M8.25 6.18C8.25 5.25216 9.0335 4.5 10 4.5C10.9665 4.5 11.75 5.25216 11.75 6.18C11.75 6.77165 11.4314 7.29187 10.95 7.59118C10.4809 7.88276 10 8.30772 10 8.86V9.00003" stroke="currentColor" stroke-linecap="round" stroke-linejoin="round"/><circle cx="10" cy="10.5" r="0.25" stroke="currentColor" stroke-width="0.5"/><path d="M15.5 15.5L18.5 15.5M15.5 17.5H18.5M12.5 15.5H13.5M12.5 17.5L13.5 17.5" stroke="currentColor" stroke-linecap="round"/></svg>

<svg xmlns="http://www.w3.org/2000/svg" fill="none" viewBox="0 0 24 24" width="1em" height="1em"><path stroke="currentColor" d="M10.957 14.5v4a2 2 0 0 0 2 2h6.989a1 1 0 0 1 .692.278l.537.515a.744.744 0 0 0 1.26-.537V14.5a2 2 0 0 0-2-2h-7.478a2 2 0 0 0-2 2Z"/><path stroke="currentColor" stroke-linecap="round" d="M17.217 9V4.5a2 2 0 0 0-2-2H4.5a2 2 0 0 0-2 2v7.715c0 .71.575 1.285 1.285 1.285v0c.444 0 .858-.23 1.092-.608l.569-.919a1 1 0 0 1 .85-.473H7.5"/><path stroke="currentColor" stroke-linecap="round" stroke-linejoin="round" d="M8.25 6.18c0-.928.784-1.68 1.75-1.68s1.75.752 1.75 1.68c0 .592-.319 1.112-.8 1.411-.47.292-.95.717-.95 1.269V9"/><circle cx="10" cy="10.5" r=".25" stroke="currentColor" stroke-width=".5"/><path stroke="currentColor" stroke-linecap="round" d="M15.5 15.5h3m-3 2h3m-6-2h1m-1 2h1"/></svg>
